svg/u1faf4_1f3fc.svg

<svg viewBox="0 0 128 128" xmlns="http://www.w3.org/2000/svg" xmlns:xlink="http://www.w3.org/1999/xlink">
  <path id="hand" d="M113.33,100.54c2.21-0.73,6.09-1.68,6.76-1.9c2.22-0.74,2.73-1.76,2.51-3.78 c-0.29-2.66-3.77-5.09-7.3-6.05c-1.6-0.43-3.14-0.67-4.65-0.76c0.03-0.05,0.06-0.11,0.07-0.16c0-3.27-1.7-4.37-3.83-5.61 c-3.7-2.16-7.97-0.09-12.4,1.67c-0.38-0.55-1.32-2.25-2.13-2.77c-1.67-1.08-5.4-3.72-14.65,2.1c-6.62,4.16-12.79,6.65-16.8,6.65 c-5.76,0.07-14.28-2.69-16.17-4.81c1.04-4.34,4.77-9.04,7.24-11.59c5.32-5.51,8.68-9.41,8.28-14.07c-0.38-4.37-4.43-7.01-7.83-3.77 c-1.93,1.84-7.97,8.71-21.06,14.63c-3.47,1.57-6.65,3.9-10.77,7.7c-7.09,6.53-12.97,6.94-12.97,6.94s-0.71,0.58-1.1,1.61 C5.6,89.08,4,94.51,4,102.55c0,7.02,1.22,11.67,2.15,14.2c0.58,1.57,1.2,2.36,1.2,2.36s4.57,1.07,13.49,0.69 c9.42-0.4,26.6-1.21,40.52-4.8c17.84-4.6,42.85-2.47,53.98-1.43c1.57,0.15,4.43,0.53,5.79-0.68c1.15-1.02,0.83-2.56,0.86-3.6 C122.09,106.07,117.31,102.6,113.33,100.54z" fill="#E0BB95"/>
  <g id="tone">
    <path d="M123.87,94.9c-0.3-2.73-2.22-5.93-5.84-6.9c-1.64-0.44-3.22-0.68-4.77-0.77 c0.03-0.05,0.06-0.11,0.08-0.16c0-3.36-1.74-4.48-3.92-5.75c-3.79-2.21-8.57-1.19-13.11,0.62c-0.39-0.57-0.96-1.21-1.78-1.74 c-1.71-1.11-7.02-4.67-16.51,1.3c-9.13,5.74-17.19,8.16-17.26,8.18l3.23,2.48c0.32-0.1,6.48-1.4,16.06-7.43 c5.85-3.69,9.04-3.13,10.57-2.35c0.95,0.49,1.39,0.99,1.59,1.4c-3.09,1.5-5.86,3.01-7.84,3.62c-4.21,1.3-13.69,3.41-14.66,3.65 l1.86,3.48c0.95-0.24,10.02-2.55,14.36-3.66c4.34-1.11,14.28-7.91,19.77-7.16c2.32,0.32,3.59,1.79,3.79,3.36 c0.01,0.1,0.01,0.17,0,0.25c-5.53,0.56-10.57,2.89-15.62,5.15c-3.53,1.58-5.32,3.15-10.57,3.41l0.42,3.79 c3.06-0.34,6.51-1.84,10.49-3.57c7.03-3.06,15.06-6.75,22.84-4.41c3.55,1.07,3.95,4.19,3.02,4.4c-0.92,0.21-6.63,2.15-8.9,2.81 l1.07,3.66c6.1-1.78,8.68-2.81,9.8-3.19C124.3,98.6,124.09,96.97,123.87,94.9z" fill="#BA8F63"/>
    <path d="M116.68,100.29c-6.72-2.6-16.49-3.81-30.75-3.81c-0.63,0-2.38-0.74-4.22-1.52 c-3.05-1.29-7.24-3.05-12.93-4.54c-2.87-0.75-6.05-1.22-9.13-1.67c-5.39-0.79-10.94-1.6-12.89-3.78c1.07-4.45,4.25-8.45,6.78-11.07 c5.46-5.65,8.78-9.35,8.37-14.12c-0.39-4.48-2.68-6.04-4.01-6.56c-2.05-0.81-4.59-0.32-6.32,1.23c-2.04,1.82-6.17,8.52-19.6,14.6 c-3.56,1.61-6.82,4-11.04,7.89c-3.69,3.39-7.2,5.12-9.7,6.14c-0.59,0.24-1.01,0.37-1.9,0.6c-1.56,0.39-2.29,1.28-2.8,2.69 C6.26,87.13,5.9,88.5,5.9,88.5l1.31-0.25c6.29-1.03,12.42-4.7,16.39-8.57c3.76-3.65,6.91-5.82,10.25-7.3 c8.81-3.9,18.17-13.2,20.27-15.08c0.55-0.49,1.57-0.84,2.38-0.52c0.89,0.35,1.46,1.54,1.62,3.35c0.26,2.97-2.03,5.68-7.31,11.14 c-2.68,2.78-8.06,7.36-8.17,14.3c-0.03,1.6,0.99,3.03,2.48,3.62c2.6,1.04,7.38,2.6,13.99,3.35c2.99,0.34,6.05,0.89,8.72,1.58 c5.43,1.42,9.46,3.12,12.41,4.37c2.59,1.09,4.3,1.81,5.7,1.81c13.78,0,23.11,1.13,29.38,3.55c3.54,1.37,5.27,3.9,5.14,6.21 c-0.07,1.26-1.54,1.21-2.67,1.11c-11.61-1.09-40.66-3.1-59.53,1.77c-19.31,4.98-47.73,4.52-52.18,3.58c0,0,0.37,1.09,0.77,1.9 c0.83,1.68,1.95,2.38,3.49,2.47c2.78,0.16,7.32,0.36,10.71,0.21c9.66-0.41,23.9-0.8,38.16-4.48c18.29-4.72,46.81-2.73,58.22-1.66 c1.61,0.15,3.62,0.34,5.02-0.9c1.18-1.05,1.36-2.58,1.39-3.65C123.96,106.8,121.53,102.17,116.68,100.29z" fill="#BA8F63"/>
  </g>
</svg>

<svg viewBox="0 0 128 128" xmlns="http://www.w3.org/2000/svg">
  <defs/>
  <path id="hand" d="M113.33,100.54 C115.54,99.81 119.42,98.86 120.09,98.64 C122.31,97.9 122.82,96.88 122.6,94.86 C122.31,92.2 118.83,89.77 115.3,88.81 C113.7,88.38 112.16,88.14 110.65,88.05 C110.68,88 110.71,87.94 110.72,87.89 C110.72,84.62 109.02,83.52 106.89,82.28 C103.19,80.12 98.92,82.19 94.49,83.95 C94.11,83.4 93.17,81.7 92.36,81.18 C90.69,80.1 86.96,77.46 77.71,83.28 C71.09,87.44 64.92,89.93 60.91,89.93 C55.15,90 46.63,87.24 44.74,85.12 C45.78,80.78 49.51,76.08 51.98,73.53 C57.3,68.02 60.66,64.12 60.26,59.46 C59.88,55.09 55.83,52.45 52.43,55.69 C50.5,57.53 44.46,64.4 31.37,70.32 C27.9,71.89 24.72,74.22 20.6,78.02 C13.51,84.55 7.63,84.96 7.63,84.96 C7.63,84.96 6.92,85.54 6.53,86.57 C5.6,89.08 4,94.51 4,102.55 C4,109.57 5.22,114.22 6.15,116.75 C6.73,118.32 7.35,119.11 7.35,119.11 C7.35,119.11 11.92,120.18 20.84,119.8 C30.26,119.4 47.44,118.59 61.36,115 C79.2,110.4 104.21,112.53 115.34,113.57 C116.91,113.72 119.77,114.1 121.13,112.89 C122.28,111.87 121.96,110.33 121.99,109.29 C122.09,106.07 117.31,102.6 113.33,100.54 Z" fill="#E0BB95"/>
  <path d="M123.87,94.9 C123.57,92.17 121.65,88.97 118.03,88 C116.39,87.56 114.81,87.32 113.26,87.23 C113.29,87.18 113.32,87.12 113.34,87.07 C113.34,83.71 111.6,82.59 109.42,81.32 C105.63,79.11 100.85,80.13 96.31,81.94 C95.92,81.37 95.35,80.73 94.53,80.2 C92.82,79.09 87.51,75.53 78.02,81.5 C68.89,87.24 60.83,89.66 60.76,89.68 L63.99,92.16 C64.31,92.06 70.47,90.76 80.05,84.73 C85.9,81.04 89.09,81.6 90.62,82.38 C91.57,82.87 92.01,83.37 92.21,83.78 C89.12,85.28 86.35,86.79 84.37,87.4 C80.16,88.7 70.68,90.81 69.71,91.05 L71.57,94.53 C72.52,94.29 81.59,91.98 85.93,90.87 C90.27,89.76 100.21,82.96 105.7,83.71 C108.02,84.03 109.29,85.5 109.49,87.07 C109.5,87.17 109.5,87.24 109.49,87.32 C103.96,87.88 98.92,90.21 93.87,92.47 C90.34,94.05 88.55,95.62 83.3,95.88 L83.72,99.67 C86.78,99.33 90.23,97.83 94.21,96.1 C101.24,93.04 109.27,89.35 117.05,91.69 C120.6,92.76 121,95.88 120.07,96.09 C119.15,96.3 113.44,98.24 111.17,98.9 L112.24,102.56 C118.34,100.78 120.92,99.75 122.04,99.37 C124.3,98.6 124.09,96.97 123.87,94.9 Z" fill="#BA8F63"/>
  <path d="M116.68,100.29 C109.96,97.69 100.19,96.48 85.93,96.48 C85.3,96.48 83.55,95.74 81.71,94.96 C78.66,93.67 74.47,91.91 68.78,90.42 C65.91,89.67 62.73,89.2 59.65,88.75 C54.26,87.96 48.71,87.15 46.76,84.97 C47.83,80.52 51.01,76.52 53.54,73.9 C59,68.25 62.32,64.55 61.91,59.78 C61.52,55.3 59.23,53.74 57.9,53.22 C55.85,52.41 53.31,52.9 51.58,54.45 C49.54,56.27 45.41,62.97 31.98,69.05 C28.42,70.66 25.16,73.05 20.94,76.94 C17.25,80.33 13.74,82.06 11.24,83.08 C10.65,83.32 10.23,83.45 9.34,83.68 C7.78,84.07 7.05,84.96 6.54,86.37 C6.26,87.13 5.9,88.5 5.9,88.5 L7.21,88.25 C13.5,87.22 19.63,83.55 23.6,79.68 C27.36,76.03 30.51,73.86 33.85,72.38 C42.66,68.48 52.02,59.18 54.12,57.3 C54.67,56.81 55.69,56.46 56.5,56.78 C57.39,57.13 57.96,58.32 58.12,60.13 C58.38,63.1 56.09,65.81 50.81,71.27 C48.13,74.05 42.75,78.63 42.64,85.57 C42.61,87.17 43.63,88.6 45.12,89.19 C47.72,90.23 52.5,91.79 59.11,92.54 C62.1,92.88 65.16,93.43 67.83,94.12 C73.26,95.54 77.29,97.24 80.24,98.49 C82.83,99.58 84.54,100.3 85.94,100.3 C99.72,100.3 109.05,101.43 115.32,103.85 C118.86,105.22 120.59,107.75 120.46,110.06 C120.39,111.32 118.92,111.27 117.79,111.17 C106.18,110.08 77.13,108.07 58.26,112.94 C38.95,117.92 10.53,117.46 6.08,116.52 C6.08,116.52 6.45,117.61 6.85,118.42 C7.68,120.1 8.8,120.8 10.34,120.89 C13.12,121.05 17.66,121.25 21.05,121.1 C30.71,120.69 44.95,120.3 59.21,116.62 C77.5,111.9 106.02,113.89 117.43,114.96 C119.04,115.11 121.05,115.3 122.45,114.06 C123.63,113.01 123.81,111.48 123.84,110.41 C123.96,106.8 121.53,102.17 116.68,100.29 Z" fill="#BA8F63"/>
</svg>
